icons/1_Primary/Back4App.svg

<svg xmlns="http://www.w3.org/2000/svg" width="1024" height="1024" fill="none">
   <g clip-path="url(#a)">
      <path fill="#54688C" d="M512 1024c282.77 0 512-229.23 512-512S794.77 0 512 0 0 229.23 0 512s229.23 512 512 512Z"/>
      <path fill="#F9F9F9" d="M176.6 556.69a35.854 35.854 0 0 1-19.6-5.32 31.475 31.475 0 0 1-12.19-15.2V554H128V443h21.18v41.81a30.304 30.304 0 0 1 11.88-11.86 34.472 34.472 0 0 1 16.91-4.1 35.48 35.48 0 0 1 20 5.62 36.839 36.839 0 0 1 13.26 15.05 46.851 46.851 0 0 1 4.72 21.29V514a47.858 47.858 0 0 1-4.95 21.71 39.312 39.312 0 0 1-13.71 15.36c-5.767 3.746-12.663 5.62-20.69 5.62Zm-4.72-17.79c6.807 0 12.293-2.434 16.46-7.3 4.267-4.967 6.4-11.354 6.4-19.16 0-7.807-2.133-14.037-6.4-18.69-4.167-4.754-9.653-7.134-16.46-7.14a23.934 23.934 0 0 0-11.57 2.88 21 21 0 0 0-8.54 8.06 23.517 23.517 0 0 0-3.21 12.61v6.08a22.143 22.143 0 0 0 3.36 12.32 22.793 22.793 0 0 0 8.68 7.75 25.457 25.457 0 0 0 11.28 2.59ZM258 556.08c-9.14 0-16.45-2.334-21.93-7-5.48-4.667-8.17-11.2-8.07-19.6 0-9.02 3.25-15.66 9.75-19.92 6.607-4.354 15.443-6.534 26.51-6.54h16.91v-.76c0-9.427-4.773-14.14-14.32-14.14-6.667.04-13.333.243-20 .61-3.56.106-6.76.26-9.6.46v-17.94a356.164 356.164 0 0 1 25.75-1.07c12.667 0 22.213 2.586 28.64 7.76 6.507 5.066 9.757 13.326 9.75 24.78V554h-16.73v-15.86c-3.773 11.966-12.66 17.946-26.66 17.94Zm5.93-15.08c2.767.014 5.51-.505 8.08-1.53a14.073 14.073 0 0 0 6.24-5.47c1.727-2.667 2.693-6.214 2.9-10.64v-7.76h-17.21c-4.88 0-8.64 1.216-11.28 3.65a11.793 11.793 0 0 0-3.81 9.12 11.993 11.993 0 0 0 3.81 9.27c2.65 2.23 6.4 3.34 11.27 3.34v.02Zm96.89 15.81a44.494 44.494 0 0 1-18.74-3.65 37.485 37.485 0 0 1-13.1-9.73 41.624 41.624 0 0 1-7.78-13.68 47.783 47.783 0 0 1-2.59-15.5v-2.89a48.657 48.657 0 0 1 2.59-15.81 43.49 43.49 0 0 1 7.92-13.83 37.8 37.8 0 0 1 13.1-9.58 43.704 43.704 0 0 1 18.44-3.65 41.828 41.828 0 0 1 19.2 4.26 33.524 33.524 0 0 1 13.56 11.56 34.395 34.395 0 0 1 5.94 17.33H378.8a17.487 17.487 0 0 0-5.49-10.64c-3.053-2.84-7.27-4.26-12.65-4.26-7.107 0-12.387 2.433-15.84 7.3-3.453 4.866-5.12 11.1-5 18.7 0 7.393 1.627 13.573 4.88 18.54 3.333 4.866 8.713 7.3 16.14 7.3 5.493 0 9.827-1.42 13-4.26a17.264 17.264 0 0 0 5.78-11.1h20.57a33.56 33.56 0 0 1-5.94 17.63 35.12 35.12 0 0 1-13.87 11.87 45.142 45.142 0 0 1-19.5 4.1l-.06-.01Zm56.27-2.81V443h21.18v68.26l31.84-39.83h22.09L464 506.52 498.9 554H475l-27.73-38.61h-9V554h-21.18Zm87.79-23v-23.41l43.57-67.66 16.3 11.1-38.39 59.9 1.83 3h34.89v-39.49h20V514h13.41v17H583v23h-20v-23h-58.12Zm130.58 25.08c-9.14 0-16.453-2.334-21.94-7-5.38-4.667-8.07-11.204-8.07-19.61 0-9.02 3.25-15.66 9.75-19.92 6.5-4.26 15.337-6.444 26.51-6.55h16.91v-.76c0-9.427-4.777-14.14-14.33-14.14-6.667.04-13.333.243-20 .61-3.553.106-6.753.26-9.6.46v-17.92c3.453-.3 7.567-.554 12.34-.76 4.88-.2 9.35-.304 13.41-.31 12.667 0 22.213 2.586 28.64 7.76 6.5 5.066 9.75 13.326 9.75 24.78V554h-16.71v-15.86c-3.76 11.966-12.647 17.946-26.66 17.94ZM641.4 541c2.767.014 5.51-.506 8.08-1.53a14.073 14.073 0 0 0 6.24-5.47c1.727-2.667 2.693-6.214 2.9-10.64v-7.76H641.4c-4.88 0-8.637 1.216-11.27 3.65a11.773 11.773 0 0 0-3.81 9.12 11.993 11.993 0 0 0 3.81 9.27c2.667 2.226 6.423 3.34 11.27 3.34v.02Zm60.16 43.33v-113h16.76V492c2.533-7.7 6.697-13.477 12.49-17.33a34.526 34.526 0 0 1 20-5.92c7.827 0 14.58 1.873 20.26 5.62a38.58 38.58 0 0 1 13.56 15.2 45.602 45.602 0 0 1 4.88 21.29v3.19a48.772 48.772 0 0 1-4.72 21.59A38.574 38.574 0 0 1 771.38 551c-5.78 3.746-12.637 5.62-20.57 5.62a39.635 39.635 0 0 1-16-3.19 28.455 28.455 0 0 1-12-10.49v41.35l-21.25.04Zm43.88-45.46c6.807 0 12.29-2.434 16.45-7.3 4.273-4.967 6.407-11.3 6.4-19 0-7.807-2.133-14.09-6.4-18.85-4.16-4.76-9.643-7.14-16.45-7.14a23.986 23.986 0 0 0-11.58 2.88 20.995 20.995 0 0 0-8.53 8.06 23.517 23.517 0 0 0-3.21 12.61v6.08a22.13 22.13 0 0 0 3.35 12.32 22.86 22.86 0 0 0 8.69 7.75 25.474 25.474 0 0 0 11.28 2.62v-.03Zm62.65 45.46v-113h16.76V492c2.533-7.7 6.697-13.477 12.49-17.33a34.557 34.557 0 0 1 20-5.92c7.827 0 14.58 1.873 20.26 5.62a38.551 38.551 0 0 1 13.56 15.2 45.592 45.592 0 0 1 4.84 21.36v3.19a48.772 48.772 0 0 1-4.72 21.59 38.574 38.574 0 0 1-13.41 15.36c-5.793 3.746-12.65 5.62-20.57 5.62a39.568 39.568 0 0 1-16-3.19 28.493 28.493 0 0 1-12-10.49v41.35h-21.2l-.01-.03ZM852 538.9c6.807 0 12.29-2.434 16.45-7.3 4.273-4.967 6.407-11.3 6.4-19 0-7.807-2.133-14.09-6.4-18.85-4.16-4.76-9.643-7.14-16.45-7.14a23.986 23.986 0 0 0-11.58 2.88 20.995 20.995 0 0 0-8.53 8.06 23.517 23.517 0 0 0-3.21 12.61v6.08a22.14 22.14 0 0 0 3.32 12.33 22.793 22.793 0 0 0 8.68 7.75A25.44 25.44 0 0 0 852 538.9Z"/>
   </g>
   <defs>
      <clipPath id="a">
         <path fill="#fff" d="M0 0h1024v1024H0z"/>
      </clipPath>
   </defs>
</svg>

<svg width="1024" height="1024" viewBox="0 0 1024 1024" fill="none" xmlns="http://www.w3.org/2000/svg">
<g clip-path="url(#clip0_2_1554)">
<path d="M512 1024C794.77 1024 1024 794.77 1024 512C1024 229.23 794.77 0 512 0C229.23 0 0 229.23 0 512C0 794.77 229.23 1024 512 1024Z" fill="#54688C"/>
<path d="M176.6 556.69C169.69 556.843 162.884 554.995 157 551.37C151.431 547.72 147.163 542.398 144.81 536.17V554H128V443H149.18V484.81C151.944 479.817 156.062 475.706 161.06 472.95C166.253 470.16 172.076 468.748 177.97 468.85C185.048 468.686 192.013 470.643 197.97 474.47C203.697 478.164 208.287 483.373 211.23 489.52C214.456 496.146 216.073 503.441 215.95 510.81V514C216.03 521.525 214.334 528.963 211 535.71C207.876 541.957 203.143 547.259 197.29 551.07C191.523 554.816 184.627 556.69 176.6 556.69ZM171.88 538.9C178.687 538.9 184.173 536.466 188.34 531.6C192.607 526.633 194.74 520.246 194.74 512.44C194.74 504.633 192.607 498.403 188.34 493.75C184.173 488.996 178.687 486.616 171.88 486.61C167.842 486.579 163.862 487.569 160.31 489.49C156.755 491.31 153.792 494.106 151.77 497.55C149.535 501.368 148.423 505.738 148.56 510.16V516.24C148.446 520.587 149.614 524.872 151.92 528.56C154.094 531.851 157.085 534.521 160.6 536.31C164.111 538.028 167.971 538.914 171.88 538.9ZM258 556.08C248.86 556.08 241.55 553.746 236.07 549.08C230.59 544.413 227.9 537.88 228 529.48C228 520.46 231.25 513.82 237.75 509.56C244.357 505.206 253.193 503.026 264.26 503.02H281.17V502.26C281.17 492.833 276.397 488.12 266.85 488.12C260.183 488.16 253.517 488.363 246.85 488.73C243.29 488.836 240.09 488.99 237.25 489.19V471.25C245.817 470.583 254.4 470.226 263 470.18C275.667 470.18 285.213 472.766 291.64 477.94C298.147 483.006 301.397 491.266 301.39 502.72V554H284.66V538.14C280.887 550.106 272 556.086 258 556.08ZM263.93 541C266.697 541.014 269.44 540.495 272.01 539.47C274.593 538.315 276.767 536.409 278.25 534C279.977 531.333 280.943 527.786 281.15 523.36V515.6H263.94C259.06 515.6 255.3 516.816 252.66 519.25C251.403 520.404 250.412 521.817 249.754 523.392C249.096 524.966 248.788 526.664 248.85 528.37C248.779 530.098 249.083 531.821 249.741 533.422C250.398 535.022 251.394 536.46 252.66 537.64C255.31 539.87 259.06 540.98 263.93 540.98V541ZM360.82 556.81C354.383 556.964 347.989 555.718 342.08 553.16C337.052 550.918 332.579 547.596 328.98 543.43C325.54 539.406 322.9 534.763 321.2 529.75C319.487 524.761 318.612 519.524 318.61 514.25V511.36C318.594 505.983 319.469 500.64 321.2 495.55C322.966 490.491 325.651 485.802 329.12 481.72C332.742 477.616 337.211 474.347 342.22 472.14C348.029 469.6 354.321 468.355 360.66 468.49C367.308 468.364 373.889 469.824 379.86 472.75C385.34 475.309 390.025 479.304 393.42 484.31C396.93 489.443 398.983 495.432 399.36 501.64H378.8C378.279 497.558 376.335 493.79 373.31 491C370.257 488.16 366.04 486.74 360.66 486.74C353.553 486.74 348.273 489.173 344.82 494.04C341.367 498.906 339.7 505.14 339.82 512.74C339.82 520.133 341.447 526.313 344.7 531.28C348.033 536.146 353.413 538.58 360.84 538.58C366.333 538.58 370.667 537.16 373.84 534.32C377.087 531.473 379.15 527.512 379.62 523.22H400.19C399.911 529.539 397.852 535.65 394.25 540.85C390.754 545.96 385.969 550.055 380.38 552.72C374.267 555.522 367.604 556.923 360.88 556.82L360.82 556.81ZM417.09 554V443H438.27V511.26L470.11 471.43H492.2L464 506.52L498.9 554H475L447.27 515.39H438.27V554H417.09ZM504.88 531V507.59L548.45 439.93L564.75 451.03L526.36 510.93L528.19 513.93H563.08V474.44H583.08V514H596.49V531H583V554H563V531H504.88ZM635.46 556.08C626.32 556.08 619.007 553.746 613.52 549.08C608.14 544.413 605.45 537.876 605.45 529.47C605.45 520.45 608.7 513.81 615.2 509.55C621.7 505.29 630.537 503.106 641.71 503H658.62V502.24C658.62 492.813 653.843 488.1 644.29 488.1C637.623 488.14 630.957 488.343 624.29 488.71C620.737 488.816 617.537 488.97 614.69 489.17V471.25C618.143 470.95 622.257 470.696 627.03 470.49C631.91 470.29 636.38 470.186 640.44 470.18C653.107 470.18 662.653 472.766 669.08 477.94C675.58 483.006 678.83 491.266 678.83 502.72V554H662.12V538.14C658.36 550.106 649.473 556.086 635.46 556.08ZM641.4 541C644.167 541.014 646.91 540.494 649.48 539.47C652.063 538.315 654.237 536.409 655.72 534C657.447 531.333 658.413 527.786 658.62 523.36V515.6H641.4C636.52 515.6 632.763 516.816 630.13 519.25C628.872 520.403 627.88 521.816 627.222 523.391C626.564 524.965 626.257 526.664 626.32 528.37C626.249 530.098 626.553 531.821 627.211 533.422C627.868 535.022 628.864 536.46 630.13 537.64C632.797 539.866 636.553 540.98 641.4 540.98V541ZM701.56 584.33V471.33H718.32V492C720.853 484.3 725.017 478.523 730.81 474.67C736.707 470.682 743.693 468.614 750.81 468.75C758.637 468.75 765.39 470.623 771.07 474.37C776.87 478.13 781.553 483.38 784.63 489.57C787.957 496.166 789.632 503.472 789.51 510.86V514.05C789.609 521.513 787.995 528.899 784.79 535.64C781.779 541.87 777.147 547.175 771.38 551C765.6 554.746 758.743 556.62 750.81 556.62C745.313 556.678 739.864 555.591 734.81 553.43C729.892 551.148 725.729 547.508 722.81 542.94V584.29L701.56 584.33ZM745.44 538.87C752.247 538.87 757.73 536.436 761.89 531.57C766.163 526.603 768.297 520.27 768.29 512.57C768.29 504.763 766.157 498.48 761.89 493.72C757.73 488.96 752.247 486.58 745.44 486.58C741.399 486.549 737.416 487.54 733.86 489.46C730.308 491.281 727.35 494.077 725.33 497.52C723.095 501.338 721.983 505.708 722.12 510.13V516.21C722.002 520.556 723.167 524.841 725.47 528.53C727.649 531.82 730.643 534.49 734.16 536.28C737.669 538.008 741.529 538.904 745.44 538.9V538.87ZM808.09 584.33V471.33H824.85V492C827.383 484.3 831.547 478.523 837.34 474.67C843.238 470.684 850.223 468.616 857.34 468.75C865.167 468.75 871.92 470.623 877.6 474.37C883.401 478.129 888.084 483.379 891.16 489.57C894.485 496.191 896.146 503.522 896 510.93V514.12C896.099 521.583 894.485 528.969 891.28 535.71C888.269 541.94 883.637 547.245 877.87 551.07C872.077 554.816 865.22 556.69 857.3 556.69C851.803 556.75 846.354 555.663 841.3 553.5C836.383 551.216 832.221 547.577 829.3 543.01V584.36H808.1L808.09 584.33ZM852 538.9C858.807 538.9 864.29 536.466 868.45 531.6C872.723 526.633 874.857 520.3 874.85 512.6C874.85 504.793 872.717 498.51 868.45 493.75C864.29 488.99 858.807 486.61 852 486.61C847.959 486.579 843.976 487.57 840.42 489.49C836.868 491.311 833.91 494.107 831.89 497.55C829.655 501.368 828.543 505.738 828.68 510.16V516.24C828.552 520.587 829.706 524.875 832 528.57C834.174 531.861 837.165 534.531 840.68 536.32C844.204 538.041 848.078 538.924 852 538.9Z" fill="#F9F9F9"/>
</g>
<defs>
<clipPath id="clip0_2_1554">
<rect width="1024" height="1024" fill="white"/>
</clipPath>
</defs>
</svg>
